src/next/cmd/ko/sc_shadowed.svg

<svg height="128" viewBox="0 0 128 128" width="128" xmlns="http://www.w3.org/2000/svg" xmlns:xlink="http://www.w3.org/1999/xlink"><linearGradient id="a" gradientUnits="userSpaceOnUse" x1="48.266666" x2="48.266666" y1="108.266666" y2="-14.933333"><stop offset="0" stop-color="#1c1c1c"/><stop offset=".5" stop-color="#888"/><stop offset="1"/></linearGradient>


/&amp;amp;amp;gt;<g fill-rule="evenodd" stroke-width="5.866667"><path d="m95.466663 30.4v93.86666h11.733337v-41.066659h11.73333v-11.733334h-11.73333v-41.066667zm-70.399997 5.866667v11.733333h46.933334c0 35.200001-23.466667 58.66667-46.933334 58.66667v11.73332c35.2 0 58.666667-29.333324 58.666667-73.585415v-8.547908z" fill-opacity=".403922"/><path d="m83.466663 14.4v93.86666h11.73334v-41.066659h11.733327v-11.733334h-11.733327v-41.066667zm-70.399997 5.866667v11.733333h46.933334c0 35.200001-23.466667 58.666667-46.933334 58.666667v11.733323c35.2 0 58.666667-29.333324 58.666667-73.585415v-8.547908z" fill="url(#a)"/></g></svg>

<?xml version="1.0" encoding="UTF-8" standalone="no"?>
<svg
   xmlns:dc="http://purl.org/dc/elements/1.1/"
   xmlns:cc="http://creativecommons.org/ns#"
   xmlns:rdf="http://www.w3.org/1999/02/22-rdf-syntax-ns#"
   xmlns:svg="http://www.w3.org/2000/svg"
   xmlns="http://www.w3.org/2000/svg"
   xmlns:sodipodi="http://sodipodi.sourceforge.net/DTD/sodipodi-0.dtd"
   xmlns:inkscape="http://www.inkscape.org/namespaces/inkscape"
   height="16"
   viewBox="0 0 16 16"
   width="16"
   version="1.1"
   id="svg15"
   sodipodi:docname="sc_shadowed.svg"
   inkscape:version="0.92.4 (unknown)"
   inkscape:export-filename="/home/rizmut/Dokumen/Rizmut/Github/libreoffice-style-karasa-jaga/src/next/cmd/ko/sc_shadowed.png"
   inkscape:export-xdpi="96"
   inkscape:export-ydpi="96"><metadata
   id="metadata21">
  <rdf:RDF>
    <cc:Work
       rdf:about="">
      <dc:format>image/svg+xml</dc:format>
      <dc:type
         rdf:resource="http://purl.org/dc/dcmitype/StillImage" />
      <dc:title></dc:title>
    </cc:Work>
  </rdf:RDF>
</metadata>
<defs
   id="defs19" />
<sodipodi:namedview
   pagecolor="#ffffff"
   bordercolor="#666666"
   borderopacity="1"
   objecttolerance="10"
   gridtolerance="10"
   guidetolerance="10"
   inkscape:pageopacity="0"
   inkscape:pageshadow="2"
   inkscape:window-width="1366"
   inkscape:window-height="706"
   id="namedview17"
   showgrid="true"
   inkscape:zoom="5.2149125"
   inkscape:cx="33.758187"
   inkscape:cy="35.302611"
   inkscape:window-x="0"
   inkscape:window-y="0"
   inkscape:window-maximized="1"
   inkscape:current-layer="svg15">
  <inkscape:grid
     type="xygrid"
     id="grid831" />
</sodipodi:namedview>
<linearGradient
   id="a"
   gradientUnits="userSpaceOnUse"
   x1="48.266666"
   x2="48.266666"
   y1="108.26666"
   y2="-14.933333">
  <stop
     offset="0"
     stop-color="#1c1c1c"
     id="stop2" />
  <stop
     offset=".5"
     stop-color="#888"
     id="stop4" />
  <stop
     offset="1"
     id="stop6" />
</linearGradient>



/&amp;amp;amp;gt;<g
   style="fill-rule:evenodd;stroke-width:5.86666679"
   id="g13"
   transform="scale(0.125)">
  <path
     style="fill-opacity:0.40392199"
     inkscape:connector-curvature="0"
     d="m 95.466663,30.4 v 93.86666 H 107.2 V 83.200001 h 11.73333 V 71.466667 H 107.2 V 30.4 Z M 25.066666,36.266667 V 48 H 72 c 0,35.200001 -23.466667,58.66667 -46.933334,58.66667 v 11.73332 c 35.2,0 58.666667,-29.333324 58.666667,-73.585415 v -8.547908 z"
     id="path9" />
  <path
     inkscape:connector-curvature="0"
     style="fill:url(#a)"
     d="m 83.466663,14.4 v 93.86666 h 11.73334 V 67.200001 H 106.93333 V 55.466667 H 95.200003 V 14.4 Z M 13.066666,20.266667 V 32 H 60 C 60,67.200001 36.533333,90.666667 13.066666,90.666667 v 11.733323 c 35.2,0 58.666667,-29.333324 58.666667,-73.585415 v -8.547908 z"
     id="path11" />
</g>
</svg>
